images/3233891.svg

<?xml version="1.0" encoding="UTF-8"?>
<svg xmlns="http://www.w3.org/2000/svg" xmlns:xlink="http://www.w3.org/1999/xlink" width="300pt" height="300pt" viewBox="0 0 300 300" version="1.1">
<defs>
<g>
<symbol overflow="visible" id="glyph0-0">
<path style="stroke:none;" d="M 0.59375 2.125 L 0.59375 -8.46875 L 6.59375 -8.46875 L 6.59375 2.125 Z M 1.265625 1.453125 L 5.9375 1.453125 L 5.9375 -7.78125 L 1.265625 -7.78125 Z M 1.265625 1.453125 "/>
</symbol>
<symbol overflow="visible" id="glyph0-1">
<path style="stroke:none;" d="M 1.171875 -8.75 L 2.765625 -8.75 L 6.65625 -1.4375 L 6.65625 -8.75 L 7.796875 -8.75 L 7.796875 0 L 6.203125 0 L 2.328125 -7.3125 L 2.328125 0 L 1.171875 0 Z M 1.171875 -8.75 "/>
</symbol>
<symbol overflow="visible" id="glyph0-2">
<path style="stroke:none;" d="M 4.734375 -7.953125 C 3.867188 -7.953125 3.179688 -7.628906 2.671875 -6.984375 C 2.171875 -6.347656 1.921875 -5.472656 1.921875 -4.359375 C 1.921875 -3.265625 2.171875 -2.394531 2.671875 -1.75 C 3.179688 -1.113281 3.867188 -0.796875 4.734375 -0.796875 C 5.585938 -0.796875 6.265625 -1.113281 6.765625 -1.75 C 7.273438 -2.394531 7.53125 -3.265625 7.53125 -4.359375 C 7.53125 -5.472656 7.273438 -6.347656 6.765625 -6.984375 C 6.265625 -7.628906 5.585938 -7.953125 4.734375 -7.953125 Z M 4.734375 -8.90625 C 5.953125 -8.90625 6.925781 -8.492188 7.65625 -7.671875 C 8.394531 -6.847656 8.765625 -5.742188 8.765625 -4.359375 C 8.765625 -2.984375 8.394531 -1.882812 7.65625 -1.0625 C 6.925781 -0.238281 5.953125 0.171875 4.734375 0.171875 C 3.503906 0.171875 2.519531 -0.238281 1.78125 -1.0625 C 1.039062 -1.882812 0.671875 -2.984375 0.671875 -4.359375 C 0.671875 -5.742188 1.039062 -6.847656 1.78125 -7.671875 C 2.519531 -8.492188 3.503906 -8.90625 4.734375 -8.90625 Z M 4.734375 -8.90625 "/>
</symbol>
</g>
</defs>
<g id="surface41133">
<rect x="0" y="0" width="300" height="300" style="fill:rgb(100%,100%,100%);fill-opacity:1;stroke:none;"/>
<path style="fill:none;stroke-width:1.2;stroke-linecap:butt;stroke-linejoin:miter;stroke:rgb(0%,0%,0%);stroke-opacity:1;stroke-miterlimit:10;" d="M 35.25 196.113281 L 47.054688 187.398438 "/>
<path style="fill:none;stroke-width:1.2;stroke-linecap:butt;stroke-linejoin:miter;stroke:rgb(0%,0%,100%);stroke-opacity:1;stroke-miterlimit:10;" d="M 47.054688 187.398438 L 58.863281 178.679688 "/>
<path style="fill:none;stroke-width:1.2;stroke-linecap:butt;stroke-linejoin:miter;stroke:rgb(0%,0%,100%);stroke-opacity:1;stroke-miterlimit:10;" d="M 58.863281 178.679688 L 72.851562 183.109375 "/>
<path style="fill:none;stroke-width:1.2;stroke-linecap:butt;stroke-linejoin:miter;stroke:rgb(0%,0%,0%);stroke-opacity:1;stroke-miterlimit:10;" d="M 72.851562 183.109375 L 86.84375 187.535156 "/>
<path style="fill:none;stroke-width:1.2;stroke-linecap:butt;stroke-linejoin:miter;stroke:rgb(0%,0%,0%);stroke-opacity:1;stroke-miterlimit:10;" d="M 58.636719 149.332031 L 58.75 164.007812 "/>
<path style="fill:none;stroke-width:1.2;stroke-linecap:butt;stroke-linejoin:miter;stroke:rgb(0%,0%,100%);stroke-opacity:1;stroke-miterlimit:10;" d="M 58.75 164.007812 L 58.863281 178.679688 "/>
<path style=" stroke:none;fill-rule:nonzero;fill:rgb(100%,100%,100%);fill-opacity:1;" d="M 54.863281 171.679688 L 63.863281 171.679688 L 63.863281 185.679688 L 54.863281 185.679688 Z M 54.863281 171.679688 "/>
<g style="fill:rgb(0%,0%,100%);fill-opacity:1;">
  <use xlink:href="#glyph0-1" x="54.863281" y="182.818359"/>
</g>
<path style="fill:none;stroke-width:1.2;stroke-linecap:butt;stroke-linejoin:miter;stroke:rgb(0%,0%,0%);stroke-opacity:1;stroke-miterlimit:10;" d="M 86.84375 187.535156 L 103.914062 163.660156 "/>
<path style="fill:none;stroke-width:1.2;stroke-linecap:butt;stroke-linejoin:miter;stroke:rgb(0%,0%,0%);stroke-opacity:1;stroke-miterlimit:10;" d="M 82.933594 181.132812 L 96.589844 162.03125 "/>
<path style="fill:none;stroke-width:1.2;stroke-linecap:butt;stroke-linejoin:miter;stroke:rgb(0%,0%,0%);stroke-opacity:1;stroke-miterlimit:10;" d="M 103.914062 163.660156 L 86.480469 140.050781 "/>
<path style="fill:none;stroke-width:1.2;stroke-linecap:butt;stroke-linejoin:miter;stroke:rgb(0%,0%,0%);stroke-opacity:1;stroke-miterlimit:10;" d="M 103.914062 163.660156 L 133.261719 163.4375 "/>
<path style="fill:none;stroke-width:1.2;stroke-linecap:butt;stroke-linejoin:miter;stroke:rgb(0%,0%,0%);stroke-opacity:1;stroke-miterlimit:10;" d="M 86.480469 140.050781 L 92.363281 111.296875 "/>
<path style="fill:none;stroke-width:1.2;stroke-linecap:butt;stroke-linejoin:miter;stroke:rgb(0%,0%,0%);stroke-opacity:1;stroke-miterlimit:10;" d="M 80.304688 135.789062 L 85.011719 112.785156 "/>
<path style="fill:none;stroke-width:1.2;stroke-linecap:butt;stroke-linejoin:miter;stroke:rgb(0%,0%,0%);stroke-opacity:1;stroke-miterlimit:10;" d="M 58.636719 149.332031 L 86.480469 140.050781 "/>
<path style="fill:none;stroke-width:1.2;stroke-linecap:butt;stroke-linejoin:miter;stroke:rgb(0%,0%,0%);stroke-opacity:1;stroke-miterlimit:10;" d="M 92.363281 111.296875 L 70.402344 91.824219 "/>
<path style="fill:none;stroke-width:1.2;stroke-linecap:butt;stroke-linejoin:miter;stroke:rgb(0%,0%,0%);stroke-opacity:1;stroke-miterlimit:10;" d="M 70.402344 91.824219 L 42.558594 101.105469 "/>
<path style="fill:none;stroke-width:1.2;stroke-linecap:butt;stroke-linejoin:miter;stroke:rgb(0%,0%,0%);stroke-opacity:1;stroke-miterlimit:10;" d="M 69.804688 99.304688 L 47.527344 106.730469 "/>
<path style="fill:none;stroke-width:1.2;stroke-linecap:butt;stroke-linejoin:miter;stroke:rgb(0%,0%,0%);stroke-opacity:1;stroke-miterlimit:10;" d="M 42.558594 101.105469 L 36.675781 129.859375 "/>
<path style="fill:none;stroke-width:1.2;stroke-linecap:butt;stroke-linejoin:miter;stroke:rgb(0%,0%,0%);stroke-opacity:1;stroke-miterlimit:10;" d="M 36.675781 129.859375 L 58.636719 149.332031 "/>
<path style="fill:none;stroke-width:1.2;stroke-linecap:butt;stroke-linejoin:miter;stroke:rgb(0%,0%,0%);stroke-opacity:1;stroke-miterlimit:10;" d="M 43.453125 126.640625 L 61.023438 142.21875 "/>
<path style="fill:none;stroke-width:1.2;stroke-linecap:butt;stroke-linejoin:miter;stroke:rgb(0%,0%,0%);stroke-opacity:1;stroke-miterlimit:10;" d="M 133.261719 163.4375 L 140.695312 176.089844 "/>
<path style="fill:none;stroke-width:1.2;stroke-linecap:butt;stroke-linejoin:miter;stroke:rgb(0%,0%,100%);stroke-opacity:1;stroke-miterlimit:10;" d="M 140.695312 176.089844 L 148.128906 188.742188 "/>
<path style="fill:none;stroke-width:1.2;stroke-linecap:butt;stroke-linejoin:miter;stroke:rgb(0%,0%,0%);stroke-opacity:1;stroke-miterlimit:10;" d="M 140.703125 162.46875 L 146.652344 172.589844 "/>
<path style="fill:none;stroke-width:1.2;stroke-linecap:butt;stroke-linejoin:miter;stroke:rgb(0%,0%,100%);stroke-opacity:1;stroke-miterlimit:10;" d="M 146.652344 172.589844 L 152.597656 182.710938 "/>
<path style="fill:none;stroke-width:1.2;stroke-linecap:butt;stroke-linejoin:miter;stroke:rgb(0%,0%,0%);stroke-opacity:1;stroke-miterlimit:10;" d="M 147.742188 137.90625 L 133.261719 163.4375 "/>
<path style="fill:none;stroke-width:1.2;stroke-linecap:butt;stroke-linejoin:miter;stroke:rgb(0%,0%,100%);stroke-opacity:1;stroke-miterlimit:10;" d="M 148.128906 188.742188 L 162.804688 188.628906 "/>
<path style="fill:none;stroke-width:1.2;stroke-linecap:butt;stroke-linejoin:miter;stroke:rgb(0%,0%,0%);stroke-opacity:1;stroke-miterlimit:10;" d="M 162.804688 188.628906 L 177.480469 188.519531 "/>
<path style=" stroke:none;fill-rule:nonzero;fill:rgb(100%,100%,100%);fill-opacity:1;" d="M 144.128906 181.742188 L 153.128906 181.742188 L 153.128906 195.742188 L 144.128906 195.742188 Z M 144.128906 181.742188 "/>
<g style="fill:rgb(0%,0%,100%);fill-opacity:1;">
  <use xlink:href="#glyph0-1" x="144.128906" y="192.880859"/>
</g>
<path style="fill:none;stroke-width:1.2;stroke-linecap:butt;stroke-linejoin:miter;stroke:rgb(0%,0%,0%);stroke-opacity:1;stroke-miterlimit:10;" d="M 177.480469 188.519531 L 192.347656 213.824219 "/>
<path style="fill:none;stroke-width:1.2;stroke-linecap:butt;stroke-linejoin:miter;stroke:rgb(0%,0%,0%);stroke-opacity:1;stroke-miterlimit:10;" d="M 184.921875 187.550781 L 196.816406 207.792969 "/>
<path style="fill:none;stroke-width:1.2;stroke-linecap:butt;stroke-linejoin:miter;stroke:rgb(0%,0%,0%);stroke-opacity:1;stroke-miterlimit:10;" d="M 191.960938 162.988281 L 177.480469 188.519531 "/>
<path style="fill:none;stroke-width:1.2;stroke-linecap:butt;stroke-linejoin:miter;stroke:rgb(0%,0%,0%);stroke-opacity:1;stroke-miterlimit:10;" d="M 192.347656 213.824219 L 207.023438 213.710938 "/>
<path style="fill:none;stroke-width:1.2;stroke-linecap:butt;stroke-linejoin:miter;stroke:rgb(0%,0%,100%);stroke-opacity:1;stroke-miterlimit:10;" d="M 207.023438 213.710938 L 221.699219 213.597656 "/>
<path style="fill:none;stroke-width:1.2;stroke-linecap:butt;stroke-linejoin:miter;stroke:rgb(0%,0%,100%);stroke-opacity:1;stroke-miterlimit:10;" d="M 221.699219 213.597656 L 228.9375 200.832031 "/>
<path style="fill:none;stroke-width:1.2;stroke-linecap:butt;stroke-linejoin:miter;stroke:rgb(0%,0%,0%);stroke-opacity:1;stroke-miterlimit:10;" d="M 228.9375 200.832031 L 236.175781 188.070312 "/>
<path style="fill:none;stroke-width:1.2;stroke-linecap:butt;stroke-linejoin:miter;stroke:rgb(0%,0%,100%);stroke-opacity:1;stroke-miterlimit:10;" d="M 217.136719 207.636719 L 222.929688 197.425781 "/>
<path style="fill:none;stroke-width:1.2;stroke-linecap:butt;stroke-linejoin:miter;stroke:rgb(0%,0%,0%);stroke-opacity:1;stroke-miterlimit:10;" d="M 222.929688 197.425781 L 228.722656 187.214844 "/>
<path style=" stroke:none;fill-rule:nonzero;fill:rgb(100%,100%,100%);fill-opacity:1;" d="M 217.699219 206.597656 L 226.699219 206.597656 L 226.699219 220.597656 L 217.699219 220.597656 Z M 217.699219 206.597656 "/>
<g style="fill:rgb(0%,0%,100%);fill-opacity:1;">
  <use xlink:href="#glyph0-1" x="217.699219" y="217.736328"/>
</g>
<path style="fill:none;stroke-width:1.2;stroke-linecap:butt;stroke-linejoin:miter;stroke:rgb(0%,0%,0%);stroke-opacity:1;stroke-miterlimit:10;" d="M 236.175781 188.070312 L 228.742188 175.417969 "/>
<path style="fill:none;stroke-width:1.2;stroke-linecap:butt;stroke-linejoin:miter;stroke:rgb(0%,0%,100%);stroke-opacity:1;stroke-miterlimit:10;" d="M 228.742188 175.417969 L 221.308594 162.765625 "/>
<path style="fill:none;stroke-width:1.2;stroke-linecap:butt;stroke-linejoin:miter;stroke:rgb(0%,0%,100%);stroke-opacity:1;stroke-miterlimit:10;" d="M 221.308594 162.765625 L 206.632812 162.875 "/>
<path style="fill:none;stroke-width:1.2;stroke-linecap:butt;stroke-linejoin:miter;stroke:rgb(0%,0%,0%);stroke-opacity:1;stroke-miterlimit:10;" d="M 206.632812 162.875 L 191.960938 162.988281 "/>
<path style="fill:none;stroke-width:1.2;stroke-linecap:butt;stroke-linejoin:miter;stroke:rgb(0%,0%,100%);stroke-opacity:1;stroke-miterlimit:10;" d="M 218.425781 169.691406 L 206.6875 169.78125 "/>
<path style="fill:none;stroke-width:1.2;stroke-linecap:butt;stroke-linejoin:miter;stroke:rgb(0%,0%,0%);stroke-opacity:1;stroke-miterlimit:10;" d="M 206.6875 169.78125 L 194.949219 169.871094 "/>
<path style=" stroke:none;fill-rule:nonzero;fill:rgb(100%,100%,100%);fill-opacity:1;" d="M 217.308594 155.765625 L 226.308594 155.765625 L 226.308594 169.765625 L 217.308594 169.765625 Z M 217.308594 155.765625 "/>
<g style="fill:rgb(0%,0%,100%);fill-opacity:1;">
  <use xlink:href="#glyph0-1" x="217.308594" y="166.904297"/>
</g>
<path style="fill:none;stroke-width:1.2;stroke-linecap:butt;stroke-linejoin:miter;stroke:rgb(0%,0%,0%);stroke-opacity:1;stroke-miterlimit:10;" d="M 191.960938 162.988281 L 184.527344 150.335938 "/>
<path style="fill:none;stroke-width:1.2;stroke-linecap:butt;stroke-linejoin:miter;stroke:rgb(0%,0%,100%);stroke-opacity:1;stroke-miterlimit:10;" d="M 184.527344 150.335938 L 177.089844 137.683594 "/>
<path style="fill:none;stroke-width:1.2;stroke-linecap:butt;stroke-linejoin:miter;stroke:rgb(0%,0%,100%);stroke-opacity:1;stroke-miterlimit:10;" d="M 177.089844 137.683594 L 162.417969 137.796875 "/>
<path style="fill:none;stroke-width:1.2;stroke-linecap:butt;stroke-linejoin:miter;stroke:rgb(0%,0%,0%);stroke-opacity:1;stroke-miterlimit:10;" d="M 162.417969 137.796875 L 147.742188 137.90625 "/>
<path style="fill:none;stroke-width:1.2;stroke-linecap:butt;stroke-linejoin:miter;stroke:rgb(0%,0%,100%);stroke-opacity:1;stroke-miterlimit:10;" d="M 177.089844 137.683594 L 184.332031 124.917969 "/>
<path style="fill:none;stroke-width:1.2;stroke-linecap:butt;stroke-linejoin:miter;stroke:rgb(0%,0%,0%);stroke-opacity:1;stroke-miterlimit:10;" d="M 184.332031 124.917969 L 191.570312 112.15625 "/>
<path style=" stroke:none;fill-rule:nonzero;fill:rgb(100%,100%,100%);fill-opacity:1;" d="M 173.089844 130.683594 L 182.089844 130.683594 L 182.089844 144.683594 L 173.089844 144.683594 Z M 173.089844 130.683594 "/>
<g style="fill:rgb(0%,0%,100%);fill-opacity:1;">
  <use xlink:href="#glyph0-1" x="173.089844" y="141.822266"/>
</g>
<path style="fill:none;stroke-width:1.2;stroke-linecap:butt;stroke-linejoin:miter;stroke:rgb(0%,0%,0%);stroke-opacity:1;stroke-miterlimit:10;" d="M 150.71875 136.160156 L 143.285156 123.507812 "/>
<path style="fill:none;stroke-width:1.2;stroke-linecap:butt;stroke-linejoin:miter;stroke:rgb(100%,0%,0%);stroke-opacity:1;stroke-miterlimit:10;" d="M 143.285156 123.507812 L 135.851562 110.855469 "/>
<path style="fill:none;stroke-width:1.2;stroke-linecap:butt;stroke-linejoin:miter;stroke:rgb(0%,0%,0%);stroke-opacity:1;stroke-miterlimit:10;" d="M 144.765625 139.65625 L 137.332031 127.003906 "/>
<path style="fill:none;stroke-width:1.2;stroke-linecap:butt;stroke-linejoin:miter;stroke:rgb(100%,0%,0%);stroke-opacity:1;stroke-miterlimit:10;" d="M 137.332031 127.003906 L 129.898438 114.351562 "/>
<path style=" stroke:none;fill-rule:nonzero;fill:rgb(100%,100%,100%);fill-opacity:1;" d="M 122.875 105.601562 L 132.875 105.601562 L 132.875 119.601562 L 122.875 119.601562 Z M 122.875 105.601562 "/>
<g style="fill:rgb(100%,0%,0%);fill-opacity:1;">
  <use xlink:href="#glyph0-2" x="122.875" y="116.740234"/>
</g>
<path style="fill:none;stroke-width:1.2;stroke-linecap:butt;stroke-linejoin:miter;stroke:rgb(0%,0%,0%);stroke-opacity:1;stroke-miterlimit:10;" d="M 191.570312 112.15625 L 220.921875 111.929688 "/>
<path style="fill:none;stroke-width:1.2;stroke-linecap:butt;stroke-linejoin:miter;stroke:rgb(0%,0%,0%);stroke-opacity:1;stroke-miterlimit:10;" d="M 220.921875 111.929688 L 228.160156 99.167969 "/>
<path style="fill:none;stroke-width:1.2;stroke-linecap:butt;stroke-linejoin:miter;stroke:rgb(100%,0%,0%);stroke-opacity:1;stroke-miterlimit:10;" d="M 228.160156 99.167969 L 235.402344 86.402344 "/>
<path style="fill:none;stroke-width:1.2;stroke-linecap:butt;stroke-linejoin:miter;stroke:rgb(100%,0%,0%);stroke-opacity:1;stroke-miterlimit:10;" d="M 235.402344 86.402344 L 250.074219 86.289062 "/>
<path style="fill:none;stroke-width:1.2;stroke-linecap:butt;stroke-linejoin:miter;stroke:rgb(0%,0%,0%);stroke-opacity:1;stroke-miterlimit:10;" d="M 250.074219 86.289062 L 264.75 86.175781 "/>
<path style=" stroke:none;fill-rule:nonzero;fill:rgb(100%,100%,100%);fill-opacity:1;" d="M 230.402344 79.402344 L 240.402344 79.402344 L 240.402344 93.402344 L 230.402344 93.402344 Z M 230.402344 79.402344 "/>
<g style="fill:rgb(100%,0%,0%);fill-opacity:1;">
  <use xlink:href="#glyph0-2" x="230.402344" y="90.541016"/>
</g>
</g>
</svg>

<svg xmlns="http://www.w3.org/2000/svg" xmlns:xlink="http://www.w3.org/1999/xlink" width="300pt" height="300pt" viewBox="0 0 300 300"><defs><symbol overflow="visible"><path d="M.594 2.125V-8.47h6V2.126zm.672-.672h4.671V-7.78h-4.67zm0 0"/></symbol><symbol overflow="visible" id="a"><path d="M1.172-8.75h1.594l3.89 7.313V-8.75h1.14V0H6.204L2.328-7.313V0H1.172zm0 0"/></symbol><symbol overflow="visible" id="b"><path d="M4.734-7.953c-.867 0-1.554.324-2.062.97-.5.635-.75 1.51-.75 2.624 0 1.094.25 1.965.75 2.61.508.637 1.195.953 2.062.953.852 0 1.532-.316 2.032-.953.507-.645.765-1.516.765-2.61 0-1.113-.257-1.988-.764-2.624-.5-.645-1.18-.97-2.032-.97zm0-.953c1.22 0 2.192.414 2.922 1.234.74.824 1.11 1.93 1.11 3.313 0 1.376-.37 2.477-1.11 3.298C6.926-.24 5.953.17 4.734.17c-1.23 0-2.214-.41-2.953-1.234C1.04-1.882.673-2.984.673-4.36c0-1.382.367-2.488 1.11-3.312.738-.82 1.722-1.234 2.952-1.234zm0 0"/></symbol></defs><g><path fill="#fff" d="M0 0h300v300H0z"/><path d="M35.25 196.113l11.805-8.715" stroke-width="1.2" stroke="#000" stroke-miterlimit="10" fill="none"/><path d="M47.055 187.398l11.808-8.718M58.863 178.68l13.99 4.43" stroke-width="1.2" stroke="#00f" stroke-miterlimit="10" fill="none"/><path d="M72.852 183.11l13.992 4.425M58.637 149.332l.113 14.676" stroke-width="1.2" stroke="#000" stroke-miterlimit="10" fill="none"/><path d="M58.75 164.008l.113 14.672" stroke-width="1.2" stroke="#00f" stroke-miterlimit="10" fill="none"/><path d="M54.863 171.68h9v14h-9zm0 0" fill="#fff"/><use xlink:href="#a" x="54.863" y="182.818" fill="#00f"/><path d="M86.844 187.535l17.07-23.875M82.934 181.133L96.59 162.03M103.914 163.66L86.48 140.05M103.914 163.66l29.348-.222M86.48 140.05l5.883-28.753M80.305 135.79l4.707-23.005M58.637 149.332l27.843-9.28M92.363 111.297l-21.96-19.473M70.402 91.824l-27.843 9.28M69.805 99.305l-22.278 7.425M42.56 101.105l-5.884 28.754M36.676 129.86l21.96 19.472M43.453 126.64l17.57 15.58M133.262 163.438l7.433 12.652" stroke-width="1.2" stroke="#000" stroke-miterlimit="10" fill="none"/><path d="M140.695 176.09l7.434 12.652" stroke-width="1.2" stroke="#00f" stroke-miterlimit="10" fill="none"/><path d="M140.703 162.47l5.95 10.12" stroke-width="1.2" stroke="#000" stroke-miterlimit="10" fill="none"/><path d="M146.652 172.59l5.946 10.12" stroke-width="1.2" stroke="#00f" stroke-miterlimit="10" fill="none"/><path d="M147.742 137.906l-14.48 25.53" stroke-width="1.2" stroke="#000" stroke-miterlimit="10" fill="none"/><path d="M148.13 188.742l14.675-.113" stroke-width="1.2" stroke="#00f" stroke-miterlimit="10" fill="none"/><path d="M162.805 188.63l14.675-.11" stroke-width="1.2" stroke="#000" stroke-miterlimit="10" fill="none"/><path d="M144.13 181.742h9v14h-9zm0 0" fill="#fff"/><use xlink:href="#a" x="144.129" y="192.881" fill="#00f"/><path d="M177.48 188.52l14.868 25.304M184.922 187.55l11.894 20.243M191.96 162.988l-14.48 25.532M192.348 213.824l14.675-.113" stroke-width="1.2" stroke="#000" stroke-miterlimit="10" fill="none"/><path d="M207.023 213.71l14.676-.112M221.7 213.598l7.238-12.766" stroke-width="1.2" stroke="#00f" stroke-miterlimit="10" fill="none"/><path d="M228.938 200.832l7.238-12.762" stroke-width="1.2" stroke="#000" stroke-miterlimit="10" fill="none"/><path d="M217.137 207.637l5.793-10.21" stroke-width="1.2" stroke="#00f" stroke-miterlimit="10" fill="none"/><path d="M222.93 197.426l5.793-10.21" stroke-width="1.2" stroke="#000" stroke-miterlimit="10" fill="none"/><path d="M217.7 206.598h9v14h-9zm0 0" fill="#fff"/><use xlink:href="#a" x="217.699" y="217.736" fill="#00f"/><path d="M236.176 188.07l-7.434-12.652" stroke-width="1.2" stroke="#000" stroke-miterlimit="10" fill="none"/><path d="M228.742 175.418l-7.433-12.652M221.31 162.766l-14.677.11" stroke-width="1.2" stroke="#00f" stroke-miterlimit="10" fill="none"/><path d="M206.633 162.875l-14.672.113" stroke-width="1.2" stroke="#000" stroke-miterlimit="10" fill="none"/><path d="M218.426 169.69l-11.738.09" stroke-width="1.2" stroke="#00f" stroke-miterlimit="10" fill="none"/><path d="M206.688 169.78l-11.74.09" stroke-width="1.2" stroke="#000" stroke-miterlimit="10" fill="none"/><path d="M217.31 155.766h9v14h-9zm0 0" fill="#fff"/><use xlink:href="#a" x="217.309" y="166.904" fill="#00f"/><path d="M191.96 162.988l-7.433-12.652" stroke-width="1.2" stroke="#000" stroke-miterlimit="10" fill="none"/><path d="M184.527 150.336l-7.437-12.652M177.09 137.684l-14.672.113" stroke-width="1.2" stroke="#00f" stroke-miterlimit="10" fill="none"/><path d="M162.418 137.797l-14.676.11" stroke-width="1.2" stroke="#000" stroke-miterlimit="10" fill="none"/><path d="M177.09 137.684l7.242-12.766" stroke-width="1.2" stroke="#00f" stroke-miterlimit="10" fill="none"/><path d="M184.332 124.918l7.238-12.762" stroke-width="1.2" stroke="#000" stroke-miterlimit="10" fill="none"/><path d="M173.09 130.684h9v14h-9zm0 0" fill="#fff"/><use xlink:href="#a" x="173.09" y="141.822" fill="#00f"/><path d="M150.72 136.16l-7.435-12.652" stroke-width="1.2" stroke="#000" stroke-miterlimit="10" fill="none"/><path d="M143.285 123.508l-7.433-12.653" stroke-width="1.2" stroke="#f00" stroke-miterlimit="10" fill="none"/><path d="M144.766 139.656l-7.434-12.652" stroke-width="1.2" stroke="#000" stroke-miterlimit="10" fill="none"/><path d="M137.332 127.004l-7.434-12.652" stroke-width="1.2" stroke="#f00" stroke-miterlimit="10" fill="none"/><path d="M122.875 105.602h10v14h-10zm0 0" fill="#fff"/><use xlink:href="#b" x="122.875" y="116.74" fill="#f00"/><path d="M191.57 112.156l29.352-.226M220.922 111.93l7.238-12.762" stroke-width="1.2" stroke="#000" stroke-miterlimit="10" fill="none"/><path d="M228.16 99.168l7.242-12.766M235.402 86.402l14.672-.113" stroke-width="1.2" stroke="#f00" stroke-miterlimit="10" fill="none"/><path d="M250.074 86.29l14.676-.114" stroke-width="1.2" stroke="#000" stroke-miterlimit="10" fill="none"/><path d="M230.402 79.402h10v14h-10zm0 0" fill="#fff"/><use xlink:href="#b" x="230.402" y="90.541" fill="#f00"/></g></svg>
